Origami/22x22/apps/retroarch.svg

<svg width="22" height="22" version="1" xmlns="http://www.w3.org/2000/svg">
 <rect transform="matrix(0,-1,-1,0,0,0)" x="-21" y="-21" width="20" height="20" rx="1" ry="1" style="fill:#cccccc"/>
 <path d="m2 1c-0.554 0-1 0.446-1 1v0.5c0-0.554 0.446-1 1-1h18c0.554 0 1 0.446 1 1v-0.5c0-0.554-0.446-1-1-1h-18z" style="fill:#ffffff;opacity:.2"/>
 <path d="m2 21.5c-0.554 0-1-0.446-1-1v-0.5c0 0.554 0.446 1 1 1h18c0.554 0 1-0.446 1-1v0.5c0 0.554-0.446 1-1 1h-18z" style="opacity:.2"/>
 <path d="m7.5 7 1.5 2h-3l-0.212 1h-1.788l0.5-2h-1l-1 4h1 1.912l-0.412 2h2l-1.5 2h2l1.5-2h4l1.5 2h2l-1.5-2h2l-0.412-2h2.912l-1-4h-1l0.5 2h-1.788l-0.212-1h-3l1.5-2h-1l-1.5 2h-2l-1.5-2z" style="fill:#565656"/>
 <path d="m7 10.5v2h2v-2h-2zm6 0v2h2v-2h-2z" style="opacity:.2"/>
 <path d="m7 10v2h2v-2h-2zm6 0v2h2v-2h-2z" style="fill:#ffffff"/>
</svg>

<svg xmlns="http://www.w3.org/2000/svg" width="22" height="22" version="1">
 <rect style="fill:#cccccc" width="20" height="20" x="-21" y="-21" rx="1" ry="1" transform="matrix(0,-1,-1,0,0,0)"/>
 <path style="opacity:0.2;fill:#ffffff" d="M 2,1 C 1.446,1 1,1.446 1,2 l 0,0.5 c 0,-0.554 0.446,-1 1,-1 l 18,0 c 0.554,0 1,0.446 1,1 L 21,2 C 21,1.446 20.554,1 20,1 L 2,1 Z"/>
 <path style="opacity:0.2" d="m 2,21.5 c -0.554,0 -1,-0.446 -1,-1 L 1,20 c 0,0.554 0.446,1 1,1 l 18,0 c 0.554,0 1,-0.446 1,-1 l 0,0.5 c 0,0.554 -0.446,1 -1,1 l -18,0 z"/>
 <path style="fill:#565656" d="M 7.5,7 9,9 6,9 5.788,10 4,10 4.5,8 l -1,0 -1,4 1,0 1.912,0 -0.412,2 2,0 -1.5,2 2,0 1.5,-2 4,0 1.5,2 2,0 -1.5,-2 2,0 -0.412,-2 2.912,0 -1,-4 -1,0 0.5,2 -1.788,0 L 16,9 13,9 14.5,7 13.5,7 12,9 10,9 8.5,7 Z"/>
 <path style="opacity:0.2" d="m 7,10.5 0,2 2,0 0,-2 -2,0 z m 6,0 0,2 2,0 0,-2 -2,0 z"/>
 <path style="fill:#ffffff" d="m 7,10 0,2 2,0 0,-2 -2,0 z m 6,0 0,2 2,0 0,-2 -2,0 z"/>
</svg>
